X:394
L:1/8
Q:1/8=180
M:4/4
K:D
"^E dorian" E2 BE GABE | (3EDE BA FBAF | E2 BE FABc | dBAF BAFA | E2 BE B,EGE | E2 BA FBAF | 
 E2 BE FA(3Bcd | edBA GE E2 || ef (3gfe fgaf | g2 fg ed (3Bcd | e^def gabg | agdf geef | 
 geBd gabg | agbg a2 ga | bgag egdg | eBBA GBAF | E8 ||

